public/assets/imgs/page/homepage8/destination.svg

<svg width="25" height="24" viewBox="0 0 25 24" fill="none" xmlns="http://www.w3.org/2000/svg">
<path d="M21.6804 5.04904L15.6804 3.05027H15.6104C15.5638 3.04559 15.5169 3.04559 15.4704 3.05027H15.2404H15.1104H15.0404L9.36035 4.99907L3.68035 3.05027C3.52997 3.00071 3.36996 2.98755 3.21349 3.01188C3.05702 3.0362 2.90857 3.09731 2.78035 3.19018C2.65111 3.28214 2.54562 3.40351 2.47259 3.54427C2.39956 3.68503 2.36109 3.84113 2.36035 3.99968V17.991C2.35981 18.2006 2.42517 18.405 2.5472 18.5753C2.66922 18.7457 2.84173 18.8734 3.04035 18.9405L9.04036 20.9392C9.2418 21.0049 9.45891 21.0049 9.66036 20.9392L15.3604 19.0404L21.0404 20.9892C21.1465 21.0036 21.2542 21.0036 21.3604 20.9892C21.5694 20.9921 21.7735 20.9253 21.9404 20.7993C22.0696 20.7074 22.1751 20.586 22.2481 20.4452C22.3212 20.3045 22.3596 20.1484 22.3604 19.9898V5.99845C22.3609 5.78893 22.2955 5.58455 22.1735 5.41418C22.0515 5.24381 21.879 5.11608 21.6804 5.04904ZM8.36035 18.6007L4.36035 17.2715V5.38883L8.36035 6.718V18.6007ZM14.3604 17.2715L10.3604 18.6007V6.718L14.3604 5.38883V17.2715ZM20.3604 18.6007L16.3604 17.2715V5.38883L20.3604 6.718V18.6007Z" fill="#004B52"/>
</svg>

<svg xmlns="http://www.w3.org/2000/svg" width="25" height="24" fill="none"><path fill="#004B52" d="m21.68 5.049-6-1.999h-.07a.7.7 0 0 0-.14 0h-.43L9.36 5 3.68 3.05a1 1 0 0 0-.9.14 1 1 0 0 0-.42.81V17.99a.999.999 0 0 0 .68.95l6 1.998a1 1 0 0 0 .62 0l5.7-1.899 5.68 1.95c.107.014.214.014.32 0a.941.941 0 0 0 .58-.19.999.999 0 0 0 .42-.81V5.998a1 1 0 0 0-.68-.949ZM8.36 18.601l-4-1.33V5.39l4 1.329v11.883Zm6-1.33-4 1.33V6.718l4-1.33v11.884Zm6 1.33-4-1.33V5.39l4 1.329v11.883Z"/></svg>
